papirus/16x16/apps/kaffeine.svg

<svg height="16" viewBox="0 0 16 16" width="16" xmlns="http://www.w3.org/2000/svg"><g transform="translate(-.00000001)"><path d="m16 14.222212v-12.4443689c0-.4309777-.356571-.7778431-.8-.7778431h-14.39999998c-.4432 0-.8.3468654-.8.7777871v12.4443689c0 .431202.3568.777844.8.777844h14.39999998c.4432 0 .8-.346888.8-.777788z" fill="#54402a"/><path d="m6.3822005 5.0000719a.37500637.38889891 0 0 0 -.3822004.389074v6.2216821a.37500637.38889891 0 0 0  .5609886.337975l5.2495253-3.1108407a.37500637.38889891 0 0 0 0-.6759503l-5.2494053-3.1108413a.37500637.38889891 0 0 0 -.1788002-.0507487z" fill="#fff" opacity=".8"/></g></svg>

<?xml version="1.0" encoding="UTF-8" standalone="no"?>
<!-- Created with Inkscape (http://www.inkscape.org/) -->

<svg
   xmlns:dc="http://purl.org/dc/elements/1.1/"
   xmlns:cc="http://creativecommons.org/ns#"
   xmlns:rdf="http://www.w3.org/1999/02/22-rdf-syntax-ns#"
   xmlns:svg="http://www.w3.org/2000/svg"
   xmlns="http://www.w3.org/2000/svg"
   xmlns:sodipodi="http://sodipodi.sourceforge.net/DTD/sodipodi-0.dtd"
   xmlns:inkscape="http://www.inkscape.org/namespaces/inkscape"
   width="16"
   height="16"
   viewBox="0 0 16 16"
   id="svg2"
   version="1.1"
   inkscape:version="0.91 r13725"
   sodipodi:docname="kaffeine.svg">
  <defs
     id="defs4" />
  <sodipodi:namedview
     id="base"
     pagecolor="#ffffff"
     bordercolor="#666666"
     borderopacity="1.0"
     inkscape:pageopacity="0.0"
     inkscape:pageshadow="2"
     inkscape:zoom="0.35"
     inkscape:cx="-209.28571"
     inkscape:cy="520"
     inkscape:document-units="px"
     inkscape:current-layer="layer1"
     showgrid="false"
     units="px"
     inkscape:window-width="1600"
     inkscape:window-height="847"
     inkscape:window-x="0"
     inkscape:window-y="0"
     inkscape:window-maximized="1" />
  <metadata
     id="metadata7">
    <rdf:RDF>
      <cc:Work
         rdf:about="">
        <dc:format>image/svg+xml</dc:format>
        <dc:type
           rdf:resource="http://purl.org/dc/dcmitype/StillImage" />
        <dc:title></dc:title>
      </cc:Work>
    </rdf:RDF>
  </metadata>
  <g
     inkscape:label="Layer 1"
     inkscape:groupmode="layer"
     id="layer1"
     transform="translate(0,-1036.3622)">
    <g
       transform="translate(-1.0000008e-8,1036.3622)"
       id="g11174">
      <path
         d="M 16,14.222212 16,1.7778431 C 16,1.3468654 15.643429,1 15.2,1 L 0.80000002,1 C 0.35680002,1 1.9999999e-8,1.3468654 1.9999999e-8,1.7777871 l 0,12.4443689 C 1.9999999e-8,14.653358 0.35680002,15 0.80000002,15 L 15.2,15 c 0.4432,0 0.8,-0.346888 0.8,-0.777788 z"
         id="rect4203-0"
         inkscape:connector-curvature="0"
         style="fill:#54402a;fill-opacity:1" />
      <path
         d="m 6.3822005,5.0000719 a 0.37500637,0.38889891 0 0 0 -0.3822004,0.389074 l 0,6.2216821 a 0.37500637,0.38889891 0 0 0 0.5609886,0.337975 L 11.810514,8.8379623 a 0.37500637,0.38889891 0 0 0 0,-0.6759503 L 6.5611087,5.0511707 A 0.37500637,0.38889891 0 0 0 6.3823085,5.000422 Z"
         id="path4453-0"
         inkscape:connector-curvature="0"
         style="opacity:0.8;fill:#ffffff" />
    </g>
  </g>
</svg>
